src/assets/filled/ArrangeSquare2.svg

<?xml version="1.0" encoding="UTF-8"?>
<svg width="24" height="24" viewBox="0 0 24 24" xmlns="http://www.w3.org/2000/svg">
 <path d="m16.19 2h-8.38c-3.64 0-5.81 2.17-5.81 5.81v8.37c0 3.65 2.17 5.82 5.81 5.82h8.37c3.64 0 5.81-2.17 5.81-5.81v-8.38c0.01-3.64-2.16-5.81-5.8-5.81zm-5.26 15.15c0 0.1-0.02 0.19-0.06 0.29-0.08 0.18-0.22 0.33-0.41 0.41-0.09 0.04-0.19 0.06-0.29 0.06s-0.19-0.02-0.29-0.06c-0.09-0.04-0.17-0.09-0.24-0.16l-3.04-3.04c-0.29-0.29-0.29-0.77 0-1.06s0.77-0.29 1.06 0l1.76 1.76v-8.5c0-0.41 0.34-0.75 0.75-0.75s0.75 0.34 0.75 0.75v10.3h0.01zm6.46-6.73c-0.15 0.15-0.34 0.22-0.53 0.22s-0.38-0.07-0.53-0.22l-1.76-1.76v8.5c0 0.41-0.34 0.75-0.75 0.75s-0.75-0.34-0.75-0.75v-10.31c0-0.1 0.02-0.19 0.06-0.29 0.08-0.18 0.22-0.33 0.41-0.41 0.18-0.08 0.39-0.08 0.57 0 0.09 0.04 0.17 0.09 0.24 0.16l3.04 3.04c0.29 0.3 0.29 0.77 0 1.07z"/>
</svg>

<svg width="24" height="24" viewBox="0 0 24 24"  xmlns="http://www.w3.org/2000/svg">
<path d="M16.19 2H7.81C4.17 2 2 4.17 2 7.81V16.18C2 19.83 4.17 22 7.81 22H16.18C19.82 22 21.99 19.83 21.99 16.19V7.81C22 4.17 19.83 2 16.19 2ZM10.93 17.15C10.93 17.25 10.91 17.34 10.87 17.44C10.79 17.62 10.65 17.77 10.46 17.85C10.37 17.89 10.27 17.91 10.17 17.91C10.07 17.91 9.98 17.89 9.88 17.85C9.79 17.81 9.71 17.76 9.64 17.69L6.6 14.65C6.31 14.36 6.31 13.88 6.6 13.59C6.89 13.3 7.37 13.3 7.66 13.59L9.42 15.35V6.85C9.42 6.44 9.76 6.1 10.17 6.1C10.58 6.1 10.92 6.44 10.92 6.85V17.15H10.93ZM17.39 10.42C17.24 10.57 17.05 10.64 16.86 10.64C16.67 10.64 16.48 10.57 16.33 10.42L14.57 8.66V17.16C14.57 17.57 14.23 17.91 13.82 17.91C13.41 17.91 13.07 17.57 13.07 17.16V6.85C13.07 6.75 13.09 6.66 13.13 6.56C13.21 6.38 13.35 6.23 13.54 6.15C13.72 6.07 13.93 6.07 14.11 6.15C14.2 6.19 14.28 6.24 14.35 6.31L17.39 9.35C17.68 9.65 17.68 10.12 17.39 10.42Z" />
</svg>
